X: 11732
T: Eleanor Neary's
R: hornpipe
M: 4/4
K: Gmajor
|:GA|BABc BAGF|EB,EF GAGA|BA (3GAB edBG|
(3ABA GE D2 GA|~B3 c BAGF|EB,EF Ggfe|
dB (3cBA BGAF|1 GA (3FGA GD:|2 GA (3FGA G2 DC||
|:(3B,A,G, B,D ECEG|(3FED AF GFGA|BAGB ~c3 B|
ABGE DB,CA,|B,G,B,D ECEG|(3FGA (3DEF Ggfe|
dBcA BGAF|1 ~G2 FA G2 DC:|2 ~G2 (3FGA G2||

